dist/assets/img/nhl/teams/wpg.svg

<svg xmlns="http://www.w3.org/2000/svg" viewBox="0 0 24 16"><path fill="#8E9090" d="M20 8c0 4.419-3.58 8-7.999 8A8 8 0 1 1 20 8"/><path fill="#041E41" d="M19.463 8A7.462 7.462 0 1 1 4.538 8a7.462 7.462 0 1 1 14.925 0"/><path fill="#FFF" d="M12.723 2.546L12 .727l-.765 1.819a5.513 5.513 0 0 0-4.77 5.462c0 3.045 2.491 5.514 5.536 5.514 3.044 0 5.492-2.469 5.492-5.514a5.515 5.515 0 0 0-4.77-5.462"/><path fill="none" d="M11.541 11.006l-.001.001.056.126zM8.632 6.972l.004.541.001.005v-.005zM11.287 5.8l-.112 1.277-2.085.995 2.085-.995.113-1.277.074-.348zm4.082 1.157l-.445 1.115.445-1.112zM14.4 9.315v-.001l-1.39.094z"/><path fill="#7B303E" d="M12.573 5.091L12 5.344l-.559-.26-1.05-.688.423 2.504-1.118-1.116-.031.88-1.635-.617.595 1.654-.881.005.893.778v.952l.332-.165.619.041.599.523-.353.439.589.096m-.308.726v.833l1.316-.649.1-.25.47 2.279.475-2.298.107.269 1.316.649v-.833l-.49-.705.007.01.773-.125-.352-.439.6-.523.609-.041.331.165v-.946l.901-.786-.881-.005.596-1.654-1.637.617-.03-.88L13.209 6.9l.423-2.504-1.059.695m-1.032 5.915l.055.127-.055-.127zM14.4 9.314"/><path d="M11.068 9.412l-1.36-.091.575.502c-.009.025-.312.399-.312.399l.673.109.424-.609v-.31zm.356-4.251l-.931-.611.002.011.741 1.81.05-.571.138-.639zm-.61 1.842l-.003-.002-1.046-1.044-.031.811-1.565-.589 1.528 1.602 1.284-.613zm.848 4.28L12.001 13 12 12.057zM7.941 7.779l.694.606v-.61zm5.582-3.223l-.934.616.104.482zm2.343 1.622l-1.562.591-.457.79.312.148z" fill="#AC162C"/><path fill="#55565A" d="M15.37 6.957l-.446 1.115-2.084-.995-.113-1.277-.726-3.319-.713 3.319-.113 1.277-2.085.995-.458-1.1.005.541v1.924l.331-.166 2.102.141v.311l-.955 1.373v.833l1.317-.65.109-.273.459 1.051.474-1.051.109.273 1.316.65v-.833l-.954-1.373v-.311l2.102-.141.331.166V7.513z"/><path fill="#8E9090" d="M11.43 5.82l-.118 1.352h-.001l-.065.766-.137-.67-2.094 1-.234-.565v1.501l.157-.079 2.276.152v.491l-.955 1.373v.556l1.059-.522.164-.413-.091-.456.154.358.455 1.034V3.063z"/><g fill="#041E41"><path d="M18.147 14.559a.411.411 0 1 0 .003-.823.411.411 0 0 0-.003.823zm0-.734a.322.322 0 1 1 .004.644.322.322 0 0 1-.004-.644z"/><path d="M18.067 14.192h.063l.089.19h.099l-.094-.199a.14.14 0 0 0-.046-.271h-.199v.47h.089l-.001-.19zm0-.191h.111c.027 0 .05.023.05.051a.05.05 0 0 1-.05.052h-.111v-.103z"/></g></svg>

<svg xmlns="http://www.w3.org/2000/svg" viewBox="0 0 24 16"><path fill="#8E9090" d="M20,8c0,4.419-3.58,8-7.999,8S4,12.419,4,8c0-4.418,3.582-8,8-8C16.419,0,20,3.582,20,8"/><path fill="#041E41" d="M19.463,8c0,4.121-3.34,7.463-7.461,7.463c-4.122,0-7.464-3.342-7.464-7.463S7.878,0.537,12,0.537 C16.122,0.537,19.463,3.879,19.463,8"/><path fill="#FFF" d="M12.723,2.546L12,0.727l-0.765,1.819C8.542,2.909,6.465,5.215,6.465,8.008 c0,3.045,2.491,5.514,5.536,5.514c3.044,0,5.492-2.469,5.492-5.514C17.492,5.215,15.415,2.909,12.723,2.546"/><path fill="none" d="M11.541 11.006L11.54 11.007 11.596 11.133zM8.632 6.972L8.636 7.513 8.637 7.518 8.637 7.513zM11.287 5.8L11.175 7.077 9.09 8.072 11.175 7.077 11.288 5.8 11.362 5.452zM15.369 6.957L14.924 8.072 15.369 6.96zM14.4 9.315L14.4 9.314 13.01 9.408z"/><path fill="#7B303E" d="M12.573,5.091L12,5.344l-0.559-0.26l-1.05-0.688c0,0,0.422,2.502,0.423,2.504L9.696,5.784l-0.031,0.88 L8.03,6.047l0.595,1.654L7.744,7.706l0.893,0.778v0.952l0.332-0.165l0.619,0.041l0.599,0.523l-0.353,0.439l0.589,0.096 M10.115,11.096v0.833l1.316-0.649l0.1-0.25l0.47,2.279l0.475-2.298l0.107,0.269l1.316,0.649v-0.833l-0.49-0.705l0.007,0.01 l0.773-0.125l-0.352-0.439l0.6-0.523l0,0l0.609-0.041l0.331,0.165V8.492l0.901-0.786l-0.881-0.005l0.596-1.654l-1.637,0.617 l-0.03-0.88L13.209,6.9c0.029-0.174,0.423-2.504,0.423-2.504l-1.059,0.695 M8.636,7.513 M8.637,7.513 M11.541,11.006l0.055,0.127 L11.541,11.006L11.541,11.006z M14.4,9.314L14.4,9.314"/><g fill="#AC162C"><path d="M11.068 9.412l-1.36-.091.575.502c-.009.025-.312.399-.312.399l.673.109.424-.609V9.412zM11.424 5.161L10.493 4.55c0 0 .001.004.002.011l.741 1.81.05-.571L11.424 5.161zM10.814 7.003L10.811 7.001 9.765 5.957 9.734 6.768 8.169 6.179 9.697 7.781 10.981 7.168zM11.662 11.283L12.001 13 12 12.057zM7.941 7.779L8.635 8.385 8.635 7.775zM13.523 4.556L12.589 5.172 12.693 5.654zM15.866 6.178L14.304 6.769 13.847 7.559 14.159 7.707z"/></g><path fill="#55565A" d="M15.37 6.957L14.924 8.072 12.84 7.077 12.727 5.8 12.001 2.481 11.288 5.8 11.175 7.077 9.09 8.072 8.632 6.972 8.637 7.513 8.637 9.437 8.968 9.271 11.07 9.412 11.07 9.723 10.115 11.096 10.115 11.929 11.432 11.279 11.541 11.006 12 12.057 12.474 11.006 12.583 11.279 13.899 11.929 13.899 11.096 12.945 9.723 12.945 9.412 15.047 9.271 15.378 9.437 15.378 7.513z"/><path fill="#8E9090" d="M11.43 5.82L11.312 7.172 11.311 7.172 11.246 7.938 11.109 7.268 9.015 8.268 8.781 7.703 8.781 9.204 8.938 9.125 11.214 9.277 11.214 9.768 10.259 11.141 10.259 11.697 11.318 11.175 11.482 10.762 11.391 10.306 11.545 10.664 12 11.698 12 3.063z"/><g fill="#041E41"><path d="M18.147,14.559c0.229,0,0.413-0.184,0.413-0.411s-0.185-0.41-0.413-0.41c-0.226,0-0.41,0.183-0.41,0.41 S17.921,14.559,18.147,14.559z M18.147,13.825c0.18,0,0.324,0.144,0.324,0.322c0,0.178-0.145,0.323-0.324,0.323 c-0.178,0-0.322-0.146-0.322-0.323C17.825,13.969,17.97,13.825,18.147,13.825z"/><path d="M18.067,14.192h0.063l0.089,0.19h0.099l-0.094-0.199c0.054-0.019,0.094-0.07,0.094-0.132 c0-0.076-0.062-0.139-0.14-0.139h-0.199v0.47h0.089L18.067,14.192L18.067,14.192z M18.067,14.001h0.111 c0.027,0,0.05,0.023,0.05,0.051c0,0.029-0.022,0.052-0.05,0.052h-0.111V14.001z"/></g></svg>
